X: 2
T: Stan Chapman (J-62)
I: Stan Chapman	J-62	A	jig
C: Jerry Holland
R: jig
M: 6/8
K: A
F| "A"E3 EFA| "E"B3 Bce| "D"fea "F#m"fec| "Bm"ecA "E"BAF|
   "A"E3 EFA| "E"B3 Bce| "D"fea "E"fec| "A"ecA A2 :|
|:f| "A"e3 ecA| "D"f3 fga| "A"fec BAB| "F#m"cAF F2f|
[1 "A"e3 ecA| "D"f3 fga| fec "E"BAB| "A"cAA A2 :|
[2 "A"ecA ecA| "D"fdf fga| fec "E"BAB| "A"cAA A2 |]

